resources/icons/lock.svg

<svg xmlns="http://www.w3.org/2000/svg" viewBox="0 0 448 512">

    <path d="M80 192v-48C80 64.47 144.5 0 224 0s144 64.47 144 144v48h16c35.3 0 64 28.7 64 64v192c0 35.3-28.7 64-64 64H64c-35.35 0-64-28.7-64-64V256c0-35.3 28.65-64 64-64h16zm64 0h160v-48c0-44.18-35.8-80-80-80s-80 35.82-80 80v48z" />
</svg>

<svg xmlns="http://www.w3.org/2000/svg" viewBox="0 0 448 512" class="icon icon-lock">
    <!--! Font Awesome Pro 6.1.2 by @fontawesome - https://fontawesome.com License - https://fontawesome.com/license (Commercial License) Copyright 2022 Fonticons, Inc. -->
    <path d="M80 192V144C80 64.47 144.5 0 224 0C303.5 0 368 64.47 368 144V192H384C419.3 192 448 220.7 448 256V448C448 483.3 419.3 512 384 512H64C28.65 512 0 483.3 0 448V256C0 220.7 28.65 192 64 192H80zM144 192H304V144C304 99.82 268.2 64 224 64C179.8 64 144 99.82 144 144V192z" />
</svg>
